X:1
T:Title
%%score [ ( 1 2 ) ( 3 4 ) ]
L:1/8
Q:1/4=120
M:4/4
K:G
V:1 treble nm="Midi_74"
V:2 treble 
V:3 treble nm="Midi_74"
V:4 treble 
V:1
 B8 | B4 A4 | c8 || B8 | e4 d4 | c4 B4 | A8 || A8 | A4 A4 | d8 || B8 | %11
 c4"^Richard Thiele\n(1847-1903)" A4 | G4 F4 | G8 |] %14
V:2
 G8 | G4 A4 | F8 || G8 | G4 G4 | F4 G4 | F8 || G8 | F4 F4 | G8 || =F8 | E4 E4 | D4 D4 | D8 |] %14
V:3
 D8 | D4 D4 | D8 || D8 | C4 D4 | D4 D4 | D8 || E8 | D4 D4 | D8 || D8 | C4 C4 | B,4 A,4 | B,8 |] %14
V:4
 G,,8 | G,4 F,4 | A,8 || G,8 | C,4 B,,4 | A,,4 G,,4 | D,8 || ^C,8 | D,4 !courtesy!=C,4 | B,,8 || %10
 ^G,,8 | A,,4 C,4 | D,4 D,4 | G,,8 |] %14

